packages/sources/assets/src/assets/click-and-buy.svg

<svg width="58" height="40" viewBox="0 0 58 40" fill="none" xmlns="http://www.w3.org/2000/svg">
<rect x="0.5" y="0.5" width="57" height="39" rx="3.5" fill="white" stroke="#F3F3F3"/>
<path fill-rule="evenodd" clip-rule="evenodd" d="M40.2197 11.7751L34.1904 5.77778C34.1904 5.77778 33.4093 5 32.3062 5C32.3062 5 31.2032 5 30.4221 5.77778C30.4221 5.77778 29.641 6.55556 29.641 7.65406C29.641 7.65406 29.641 8.75256 30.4221 9.53034L31.8883 10.9837H26.2631C26.2631 10.9837 25.1464 10.9837 24.3654 11.7682C24.3654 11.7682 23.5775 12.546 23.5775 13.6514C23.5775 13.6514 23.5775 14.7566 24.3654 15.5413C24.3654 15.5413 25.1464 16.319 26.2631 16.319H31.8883L30.4221 17.7791C30.4221 17.7791 29.641 18.5569 29.641 19.6554C29.641 19.6554 29.641 20.7539 30.4221 21.5318C30.4221 21.5318 31.2031 22.3027 32.3062 22.3027C32.3062 22.3027 33.4092 22.3027 34.1904 21.5318L40.2129 15.5276C40.2129 15.5276 40.994 14.7499 40.994 13.6514C40.994 13.6514 40.994 12.5529 40.2197 11.7751Z" fill="#FF8000"/>
<path fill-rule="evenodd" clip-rule="evenodd" d="M18.5208 9.95337C18.5208 9.95337 19.994 9.95337 21.0354 10.9904C21.0354 10.9904 22.0769 12.0274 22.0769 13.4944C22.0769 13.4944 22.0769 14.9613 21.0354 15.9984C21.0354 15.9984 19.994 17.0355 18.5208 17.0355C18.5208 17.0355 17.0478 17.0355 16.0063 15.9984C16.0063 15.9984 14.9649 14.9614 14.9649 13.4944C14.9649 13.4944 14.9649 12.0274 16.0063 10.9904C16.0064 10.9904 17.0478 9.95337 18.5208 9.95337Z" fill="#FF8000"/>
<path fill-rule="evenodd" clip-rule="evenodd" d="M8.96891 32.4378C8.96891 32.4378 8.4739 32.5343 8.03309 32.5343C6.73144 32.5343 6 31.8273 6 30.499V28.9994C6 27.6713 6.72069 26.9644 8.03309 26.9644C8.51703 26.9644 8.96891 27.0608 8.96891 27.0608C9.10853 27.0823 9.17318 27.1573 9.17318 27.2751V27.9284C9.17318 28.0464 9.09788 28.1107 8.96891 28.0998C8.96891 28.0998 8.50617 28.0354 8.10839 28.0354C7.40911 28.0354 7.18332 28.4424 7.18332 29.0209V30.4668C7.18332 31.067 7.43083 31.4632 8.11914 31.4632C8.53875 31.4632 8.97967 31.3989 8.97967 31.3989C9.09799 31.3882 9.17328 31.4419 9.17328 31.5597V32.213C9.17318 32.3307 9.1195 32.4057 8.96891 32.4378Z" fill="#FF8000"/>
<path fill-rule="evenodd" clip-rule="evenodd" d="M10.9053 32.4272H10.1307C10.0122 32.4272 9.92627 32.3415 9.92627 32.2237V25.0257C9.92627 24.9075 10.0122 24.822 10.1307 24.822H10.9053C11.0235 24.822 11.1096 24.9075 11.1096 25.0257V32.2237C11.1095 32.3415 11.0235 32.4272 10.9053 32.4272Z" fill="#FF8000"/>
<path fill-rule="evenodd" clip-rule="evenodd" d="M13.0025 32.4272H12.2282C12.1098 32.4272 12.0237 32.3415 12.0237 32.2237V27.2751C12.0237 27.1572 12.1098 27.0714 12.2282 27.0714H13.0025C13.121 27.0714 13.2071 27.1572 13.2071 27.2751V32.2237C13.2072 32.3415 13.1211 32.4272 13.0025 32.4272ZM13.0025 26.0005H12.2282C12.1098 26.0005 12.0237 25.9148 12.0237 25.7971V25.0257C12.0237 24.9075 12.1098 24.822 12.2282 24.822H13.0025C13.121 24.822 13.2071 24.9075 13.2071 25.0257V25.7971C13.2072 25.9148 13.1211 26.0005 13.0025 26.0005Z" fill="#FF8000"/>
<path fill-rule="evenodd" clip-rule="evenodd" d="M17.09 32.4378C17.09 32.4378 16.5952 32.5343 16.1545 32.5343C14.8527 32.5343 14.1214 31.8273 14.1214 30.499V28.9994C14.1214 27.6713 14.842 26.9644 16.1545 26.9644C16.6384 26.9644 17.09 27.0608 17.09 27.0608C17.2298 27.0823 17.2945 27.1573 17.2945 27.2751V27.9284C17.2945 28.0464 17.2192 28.1107 17.09 28.0998C17.09 28.0998 16.6275 28.0354 16.2295 28.0354C15.5304 28.0354 15.3044 28.4424 15.3044 29.0209V30.4668C15.3044 31.067 15.552 31.4632 16.2403 31.4632C16.6597 31.4632 17.1009 31.3989 17.1009 31.3989C17.2191 31.3882 17.2944 31.4419 17.2944 31.5597V32.213C17.2945 32.3307 17.2406 32.4057 17.09 32.4378Z" fill="#FF8000"/>
<path fill-rule="evenodd" clip-rule="evenodd" d="M21.8984 32.4272H21.027C20.9088 32.4272 20.8121 32.3308 20.7582 32.2237L19.2953 29.4281L20.629 27.2751C20.6935 27.1784 20.7902 27.0714 20.9088 27.0714H21.7802C21.8984 27.0714 21.9628 27.1784 21.8984 27.2751L20.5645 29.4065L22.0381 32.2237C22.092 32.3201 22.0167 32.4272 21.8984 32.4272ZM19.0265 32.4272H18.2519C18.1337 32.4272 18.0474 32.3415 18.0474 32.2237V25.0257C18.0474 24.9075 18.1337 24.822 18.2519 24.822H19.0265C19.1447 24.822 19.231 24.9075 19.231 25.0257V32.2237C19.2309 32.3415 19.1447 32.4272 19.0265 32.4272Z" fill="#FF8000"/>
<path fill-rule="evenodd" clip-rule="evenodd" d="M25.0932 30.1883H24.1897C23.6089 30.1883 23.3721 30.4348 23.3721 30.8954C23.3721 31.3023 23.6089 31.5381 24.082 31.5381C24.4155 31.5381 24.7813 31.4095 25.0932 31.2489V30.1883ZM26.0719 32.4271H25.3513C25.2331 32.4271 25.147 32.3414 25.147 32.2236V32.1273C24.8027 32.3414 24.3511 32.5344 23.8453 32.5344C22.8021 32.5344 22.1888 32.0093 22.1888 30.9276C22.1888 29.8242 22.8664 29.2781 24.0604 29.2781C24.4264 29.2781 24.9534 29.3206 25.093 29.3424V28.9139C25.093 28.3568 24.8456 28.0569 24.2111 28.0569C23.5765 28.0569 22.7695 28.239 22.7695 28.239C22.6406 28.2711 22.5653 28.1856 22.5653 28.0676V27.4144C22.5653 27.2963 22.6406 27.2216 22.7695 27.1893C22.7695 27.1893 23.4688 26.9645 24.3724 26.9645C25.803 26.9645 26.2762 27.6286 26.2762 28.914V32.2237C26.2763 32.3414 26.1902 32.4271 26.0719 32.4271Z" fill="#808080"/>
<path fill-rule="evenodd" clip-rule="evenodd" d="M31.0739 32.4271H30.2996C30.1813 32.4271 30.0952 32.3414 30.0952 32.2236V28.8923C30.0952 28.3892 29.9445 28.0674 29.3746 28.0674C29.0411 28.0674 28.6753 28.2175 28.3741 28.3783V32.2236C28.3741 32.3414 28.2882 32.4271 28.1698 32.4271H27.3954C27.2769 32.4271 27.1909 32.3414 27.1909 32.2236V27.275C27.1909 27.1572 27.2769 27.0714 27.3954 27.0714H28.116C28.2343 27.0714 28.3205 27.1572 28.3205 27.275V27.4358C28.6322 27.2 29.0947 26.9644 29.7076 26.9644C30.8803 26.9644 31.2782 27.6713 31.2782 28.7853V32.2236C31.2782 32.3414 31.1922 32.4271 31.0739 32.4271Z" fill="#808080"/>
<path fill-rule="evenodd" clip-rule="evenodd" d="M34.8819 28.207C34.5916 28.0891 34.2689 28.0033 33.9785 28.0033C33.3868 28.0033 33.161 28.3783 33.161 28.9139V30.5742C33.161 31.1098 33.3868 31.4846 33.9785 31.4846C34.2689 31.4846 34.5916 31.3775 34.8819 31.2382V28.207ZM35.8608 32.4272H35.14C35.0217 32.4272 34.9357 32.3415 34.9357 32.2237V32.1596C34.6023 32.3629 34.1936 32.5344 33.7311 32.5344C32.537 32.5344 31.9778 31.8058 31.9778 30.6598V28.8387C31.9778 27.6926 32.537 26.9644 33.7311 26.9644C34.1721 26.9644 34.5594 27.0929 34.882 27.2537V25.0257C34.882 24.9075 34.9682 24.822 35.0865 24.822H35.8609C35.9792 24.822 36.0654 24.9075 36.0654 25.0257V32.2237C36.0653 32.3415 35.9791 32.4272 35.8608 32.4272Z" fill="#808080"/>
<path fill-rule="evenodd" clip-rule="evenodd" d="M39.8839 28.9139C39.8839 28.3784 39.6686 28.0033 39.077 28.0033C38.7865 28.0033 38.4531 28.1107 38.1627 28.2498V31.4096H38.9908C39.6364 31.4096 39.8839 31.0563 39.8839 30.5206V28.9139ZM39.0986 32.4272H37.184C37.0655 32.4272 36.9796 32.3415 36.9796 32.2237V25.0257C36.9796 24.9075 37.0655 24.822 37.184 24.822H37.9584C38.0768 24.822 38.1628 24.9075 38.1628 25.0257V27.2963C38.4855 27.1036 38.8835 26.9644 39.3245 26.9644C40.5183 26.9644 41.0672 27.6927 41.0672 28.8387V30.5526C41.0671 31.72 40.4322 32.4272 39.0986 32.4272Z" fill="#FF8000"/>
<path fill-rule="evenodd" clip-rule="evenodd" d="M45.8647 32.4272H45.144C45.0257 32.4272 44.9396 32.3415 44.9396 32.2236V32.0629C44.6278 32.2988 44.1651 32.5344 43.552 32.5344C42.3796 32.5344 41.9816 31.8273 41.9816 30.7133V27.275C41.9816 27.1572 42.0675 27.0714 42.186 27.0714H42.9606C43.0788 27.0714 43.165 27.1572 43.165 27.275V30.6063C43.165 31.1097 43.3155 31.4309 43.8855 31.4309C44.2188 31.4309 44.5846 31.2812 44.8859 31.1204V27.275C44.8859 27.1572 44.972 27.0714 45.0902 27.0714H45.8647C45.983 27.0714 46.0691 27.1572 46.0691 27.275V32.2236C46.0691 32.3415 45.9829 32.4272 45.8647 32.4272Z" fill="#FF8000"/>
<path fill-rule="evenodd" clip-rule="evenodd" d="M48.9519 34.2696C48.9089 34.3767 48.8443 34.4624 48.7261 34.4624H47.8546C47.7364 34.4624 47.6505 34.366 47.6934 34.2591L48.3064 32.4701L46.596 27.2752C46.564 27.1682 46.6286 27.0715 46.7576 27.0715H47.6074C47.7257 27.0715 47.8116 27.1467 47.844 27.2643L48.9413 30.6599L50.0922 27.2643C50.1352 27.1574 50.2105 27.0715 50.3288 27.0715H51.1787C51.3077 27.0715 51.3829 27.1785 51.34 27.286L48.9519 34.2696Z" fill="#FF8000"/>
</svg>

<svg width="58" height="40" fill="none" xmlns="http://www.w3.org/2000/svg"><rect x=".5" y=".5" width="57" height="39" rx="3.5" fill="#fff" stroke="#F3F3F3"/><path fill-rule="evenodd" clip-rule="evenodd" d="m40.22 11.775-6.03-5.997S33.41 5 32.306 5c0 0-1.103 0-1.884.778 0 0-.781.778-.781 1.876 0 0 0 1.099.781 1.876l1.466 1.454h-5.625s-1.117 0-1.898.784c0 0-.787.778-.787 1.883 0 0 0 1.106.787 1.89 0 0 .781.778 1.898.778h5.625l-1.466 1.46s-.781.778-.781 1.876c0 0 0 1.099.781 1.877 0 0 .781.77 1.884.77 0 0 1.103 0 1.884-.77l6.023-6.004s.781-.778.781-1.877c0 0 0-1.098-.774-1.876m-21.7-1.822s1.474 0 2.515 1.037c0 0 1.042 1.037 1.042 2.504 0 0 0 1.467-1.042 2.504 0 0-1.041 1.037-2.514 1.037 0 0-1.473 0-2.515-1.037 0 0-1.041-1.037-1.041-2.504 0 0 0-1.467 1.041-2.504 0 0 1.042-1.037 2.515-1.037M8.969 32.438s-.495.096-.936.096C6.731 32.534 6 31.827 6 30.5V29c0-1.328.72-2.035 2.033-2.035.484 0 .936.097.936.097.14.021.204.096.204.214v.653c0 .118-.075.183-.204.172 0 0-.463-.065-.86-.065-.7 0-.926.407-.926.986v1.446c0 .6.248.996.936.996.42 0 .86-.064.86-.064.119-.01.194.043.194.16v.654c0 .118-.053.193-.204.225m1.936-.012h-.774a.197.197 0 0 1-.205-.203v-7.198c0-.119.086-.204.205-.204h.774c.119 0 .205.085.205.204v7.198a.197.197 0 0 1-.205.203m2.097 0h-.774a.197.197 0 0 1-.204-.203v-4.949c0-.118.086-.204.204-.204h.774c.119 0 .205.086.205.204v4.949a.197.197 0 0 1-.205.203Zm0-6.427h-.774a.197.197 0 0 1-.204-.203v-.771c0-.119.086-.204.204-.204h.774c.119 0 .205.085.205.204v.771a.197.197 0 0 1-.205.203Zm4.088 6.438s-.495.096-.936.096c-1.301 0-2.033-.707-2.033-2.035v-1.5c0-1.328.721-2.035 2.033-2.035.484 0 .936.097.936.097.14.021.204.096.204.214v.653c0 .118-.075.183-.204.172 0 0-.462-.065-.86-.065-.7 0-.926.407-.926.986v1.446c0 .6.248.996.936.996.42 0 .86-.064.86-.064.12-.01.194.043.194.16v.654c0 .118-.053.193-.204.225m4.808-.011h-.871c-.118 0-.215-.096-.269-.203l-1.463-2.796 1.334-2.153c.064-.097.161-.204.28-.204h.871c.118 0 .183.107.118.204l-1.334 2.132 1.474 2.817c.054.096-.021.203-.14.203Zm-2.872 0h-.774a.198.198 0 0 1-.205-.203v-7.198c0-.119.087-.204.205-.204h.774c.119 0 .205.085.205.204v7.198a.198.198 0 0 1-.205.203Z" fill="#FF8000"/><path fill-rule="evenodd" clip-rule="evenodd" d="M25.093 30.188h-.903c-.581 0-.818.247-.818.707 0 .407.237.643.71.643.334 0 .7-.128 1.011-.29v-1.06Zm.979 2.24h-.72a.197.197 0 0 1-.205-.204v-.097c-.344.214-.796.407-1.302.407-1.043 0-1.656-.525-1.656-1.606 0-1.104.677-1.65 1.871-1.65.366 0 .893.043 1.033.064v-.428c0-.557-.247-.857-.882-.857-.634 0-1.441.182-1.441.182-.13.032-.205-.053-.205-.171v-.654c0-.118.076-.192.204-.225 0 0 .7-.224 1.603-.224 1.431 0 1.904.664 1.904 1.949v3.31a.197.197 0 0 1-.204.203Zm5.002-.001H30.3a.197.197 0 0 1-.205-.203v-3.332c0-.503-.15-.825-.72-.825-.334 0-.7.15-1 .311v3.846a.197.197 0 0 1-.205.203h-.775a.197.197 0 0 1-.204-.203v-4.949c0-.118.086-.204.204-.204h.721c.118 0 .204.086.204.204v.16a2.27 2.27 0 0 1 1.388-.47c1.172 0 1.57.706 1.57 1.82v3.439a.197.197 0 0 1-.204.203m3.808-4.22c-.29-.118-.613-.204-.904-.204-.591 0-.817.375-.817.91v1.661c0 .536.226.91.817.91.29 0 .614-.107.904-.246v-3.031Zm.979 4.22h-.721a.197.197 0 0 1-.204-.203v-.064c-.334.203-.742.374-1.205.374-1.194 0-1.753-.728-1.753-1.874v-1.821c0-1.146.559-1.875 1.753-1.875.441 0 .828.129 1.151.29v-2.228c0-.119.086-.204.205-.204h.774c.118 0 .204.085.204.204v7.198a.198.198 0 0 1-.204.203Z" fill="gray"/><path fill-rule="evenodd" clip-rule="evenodd" d="M39.884 28.914c0-.536-.215-.91-.807-.91-.29 0-.624.107-.914.246v3.16h.828c.645 0 .893-.354.893-.89v-1.606Zm-.785 3.513h-1.915a.197.197 0 0 1-.204-.203v-7.198c0-.119.086-.204.204-.204h.774c.119 0 .205.085.205.204v2.27c.323-.192.72-.332 1.162-.332 1.193 0 1.742.729 1.742 1.875v1.714c0 1.167-.635 1.874-1.968 1.874Zm6.766 0h-.721a.197.197 0 0 1-.204-.203v-.161a2.27 2.27 0 0 1-1.388.471c-1.172 0-1.57-.707-1.57-1.82v-3.439c0-.118.086-.204.204-.204h.775c.118 0 .204.086.204.204v3.331c0 .504.15.825.72.825.334 0 .7-.15 1-.31v-3.846c0-.118.087-.204.205-.204h.775c.118 0 .204.086.204.204v4.949a.197.197 0 0 1-.204.203m3.087 1.843c-.043.107-.108.192-.226.192h-.871c-.119 0-.204-.096-.162-.203l.613-1.789-1.71-5.195c-.032-.107.033-.203.162-.203h.85c.118 0 .204.075.236.192l1.097 3.396 1.151-3.396c.043-.107.119-.192.237-.192h.85c.129 0 .204.107.161.214l-2.388 6.984Z" fill="#FF8000"/></svg>
